X:1
T:standard tuning
T:Turlough O'Carolan
T:Carolan's Receipt
%%score ( 1 2 )
L:1/8
Q:1/4=120
M:4/4
K:G
V:1 treble nm="Receipt for Drinking"
V:2 treble 
V:1
 z4 z2 g>f |: edcB cBAG | E2 GA G2 g>f | edcB cBcd | [Ece]2 AB A2 Bc | dBde d2 Bd | %6
 [Ge]gfa [Gg]2 fg | edcB cBAG | E2 GA G2 Bc | dBde [Ad]BAG | EFGA G2 Bc | dBde [Ad]2 Bd | %12
 [Ece]2 eg [EGe]4 | G3 B A3 c | BABd e3 f | gfed BABd | eg fa g2 ga | ba bg ag ae | gf gd ed cB | %19
 cBcd efgf | edgB A2 e2 | dcBA G2 ge | dBAG E2 GA | BAGE [DA]GED |1 E2 GA G2 g>f :|2 E2 GA G2 GA || %26
 BAGE [DA]GED | E2 GA [DG]4 |] %28
V:2
 x8 |: G,4 A,4 | C4 G,4 | C4 A,4 | G,4 F,4 | G,4 F,4 | [E,B,]2 [A,D]2 [G,B,D]4 | C4 A,4 | C4 G,4 | %9
 G,4 F,4 | C4 G,4 | G,4 F,4 | G,4 [E,B,]4 | [G,B,D]4 [F,A,D]4 | G,4 C4 | B,4 G,4 | C2 D2 G,4 | %17
 D2 G2 C2 A,2 | E,2 B,2 C2 E2 | A,4 C4 | B,4 [F,A,D]4 | B,4 [G,B,D]4 | [F,A,D]4 C4 | G,4 F,4 |1 %24
 C4 [G,B,D]4 :|2 C4 [E,B,E]4 || G,4 F,4 | C4 [G,B,]4 |] %28

